assets/icons/icon-phone/web/icon-phone.svg

<?xml version="1.0" encoding="UTF-8" standalone="no"?>
<svg width="48px" height="48px" viewBox="0 0 48 48" version="1.1" xmlns="http://www.w3.org/2000/svg" xmlns:xlink="http://www.w3.org/1999/xlink">
    <!-- Generator: Sketch 45.2 (43514) - http://www.bohemiancoding.com/sketch -->
    <title>icon-phone</title>
    <desc>Created with Sketch.</desc>
    <defs></defs>
    <g id="Symbols" stroke="none" stroke-width="1" fill="none" fill-rule="evenodd">
        <g id="icon-phone" fill="#2D2D2D" fill-rule="nonzero">
            <path d="M29.8860625,33.5 C31.9018375,33.5 33.4301375,31.774075 33.4964375,30.603625 C33.4934625,30.57515 33.4921875,30.546675 33.4921875,30.5182 C33.4921875,30.3652 33.4139875,30.26405 33.3676625,30.217725 C33.3574625,30.20795 33.3366375,30.18925 33.2915875,30.1612 C33.2669375,30.1459 33.2431375,30.129325 33.2197625,30.111475 L29.6217125,27.313275 C29.5936625,27.29075 29.5673125,27.2678 29.5426625,27.242725 C29.4959125,27.1964 29.3947625,27.1182 29.2421875,27.1182 C29.1673875,27.1182 29.0959875,27.13945 29.0292625,27.1811 L28.0772625,28.1399 C28.0619625,28.155625 28.0462375,28.170925 28.0296625,28.18495 C27.7121875,28.497325 27.2846375,28.67455 26.8405125,28.67455 C26.3993625,28.67455 25.9777625,28.50115 25.6636875,28.199825 C24.1417625,27.096525 22.8578375,25.818125 21.8131875,24.3744 C21.8012875,24.35825 21.7902375,24.341675 21.7796125,24.3251 C21.4833875,24.01145 21.3129625,23.592825 21.3129625,23.1538 C21.3129625,22.6846 21.5084625,22.2375 21.8518625,21.9145 C21.8565375,21.909825 22.8119375,20.96165 22.8119375,20.96165 C22.8527375,20.895775 22.8735625,20.8248 22.8735625,20.75 C22.8735625,20.597 22.7957875,20.49585 22.7490375,20.449525 C22.7243875,20.42445 22.7005875,20.398525 22.6793375,20.37005 L19.8802875,16.772 C19.8632875,16.7499 19.8471375,16.726525 19.8318375,16.7023 C19.8037875,16.657675 19.7850875,16.635575 19.7740375,16.624525 C19.7277125,16.577775 19.6265625,16.5 19.4735625,16.5 C18.3035375,16.5 16.4985625,18.05125 16.4985625,20.1125 C16.4985625,20.645025 16.6162875,21.163525 16.8487625,21.654825 C16.8712875,21.702 16.8891375,21.7513 16.9023125,21.8006 C19.3681625,26.631575 23.3716625,30.634225 28.2026375,33.0988 C28.2506625,33.11155 28.2982625,33.12855 28.3441625,33.1498 C28.8346125,33.38185 29.3531125,33.5 29.8860625,33.5 Z M23.4633708,23.2457678 C23.4616346,23.2430504 23.4602408,23.240869 23.4589603,23.2388875 L23.4633708,23.2457678 Z M26.6580251,26.7307281 L26.6665648,26.7221275 C26.6632961,26.725264 26.6611111,26.7275291 26.6580251,26.7307281 Z M23.2103831,23.3812051 C23.2211541,23.3710811 23.2298742,23.3628847 23.2370932,23.3560858 C23.2398206,23.3530761 23.2424853,23.35 23.2450853,23.3468604 L23.2103831,23.3812051 Z M26.7888416,26.5463332 L27.7734623,25.6073235 L27.9702362,25.4844966 C28.3498137,25.2475628 28.7869033,25.1182 29.2421875,25.1182 C29.9194269,25.1182 30.4672487,25.3756611 30.8944924,25.7694894 L34.4025626,28.4978088 C34.5340934,28.5840512 34.6517858,28.6782891 34.7818761,28.8035114 C35.2010163,29.2226517 35.4921875,29.7995003 35.4921875,30.5182 C35.4921875,30.4805684 35.4902121,30.4398452 35.4856105,30.395801 L35.5023435,30.5559602 L35.4932366,30.7167334 C35.3552197,33.1532613 32.7463177,35.5 29.8860625,35.5 C29.0898467,35.5 28.311501,35.3304192 27.5945628,35.0066474 L27.4835318,34.9771701 L27.2937577,34.8803548 C22.087219,32.2241818 17.7783951,27.9161956 15.120948,22.7098528 L15.02475,22.5213861 L14.9954631,22.4117967 C14.667029,21.6828689 14.4985625,20.9066006 14.4985625,20.1125 C14.4985625,17.1790278 16.9784823,14.5 19.4735625,14.5 C20.1928069,14.5 20.7750264,14.7932661 21.1882511,15.2103114 C21.306122,15.3281824 21.4047031,15.4531878 21.4929262,15.5877476 L24.2193817,19.0931118 C24.6089227,19.5071701 24.8735625,20.0667602 24.8735625,20.75 C24.8735625,21.201334 24.7467142,21.6361489 24.512234,22.0147368 L24.3880847,22.2151861 L24.2207247,22.3812692 L23.4182891,23.1754404 C24.3581431,24.4749549 25.4755112,25.5886123 26.7888416,26.5463332 Z"></path>
        </g>
    </g>
</svg>

<svg width="48" height="48" viewBox="0 0 48 48" xmlns="http://www.w3.org/2000/svg"><title>icon-phone</title><path d="M29.886 33.5c2.016 0 3.544-1.726 3.61-2.896a.821.821 0 0 1-.004-.086.424.424 0 0 0-.124-.3.445.445 0 0 0-.076-.057.902.902 0 0 1-.072-.05l-3.598-2.798a.899.899 0 0 1-.08-.07.426.426 0 0 0-.3-.125.397.397 0 0 0-.213.063l-.952.959a.679.679 0 0 1-.047.045c-.318.312-.745.49-1.19.49-.44 0-.862-.174-1.176-.475a17.098 17.098 0 0 1-3.884-3.875 1.701 1.701 0 0 1 .072-2.41l.96-.953a.397.397 0 0 0 .062-.212.422.422 0 0 0-.125-.3.777.777 0 0 1-.07-.08l-2.799-3.598a.921.921 0 0 1-.048-.07.451.451 0 0 0-.058-.077.422.422 0 0 0-.3-.125c-1.17 0-2.975 1.551-2.975 3.613 0 .532.117 1.05.35 1.542.022.047.04.096.053.146a26.068 26.068 0 0 0 11.3 11.298c.049.013.096.03.142.05a3.58 3.58 0 0 0 1.542.351zm-6.423-10.254a1.639 1.639 0 0 0-.004-.007l.004.007zm3.195 3.485l.009-.009-.009.009zm-3.448-3.35a39.68 39.68 0 0 0 .035-.034l-.035.034zm3.579 3.165l.984-.939.197-.123c.38-.236.817-.366 1.272-.366.677 0 1.225.258 1.652.651l3.509 2.729a2.377 2.377 0 0 1 1.09 2.02c0-.037-.003-.078-.007-.122l.016.16-.009.16c-.138 2.437-2.747 4.784-5.607 4.784-.796 0-1.574-.17-2.291-.493l-.111-.03-.19-.097A28.068 28.068 0 0 1 15.12 22.71l-.096-.189-.03-.11a5.572 5.572 0 0 1-.496-2.299c0-2.933 2.48-5.612 4.975-5.612a2.374 2.374 0 0 1 2.019 1.088l2.726 3.505c.39.414.655.974.655 1.657 0 .451-.127.886-.362 1.265l-.124.2-.167.166-.803.794a15.07 15.07 0 0 0 3.37 3.371z" fill="#2D2D2D" fill-rule="nonzero"/></svg>
